X:1
T:Title
%%score { ( 1 4 5 ) | ( 2 3 6 ) }
L:1/8
Q:1/4=120
M:2/2
K:D
V:1 treble nm="Piano"
V:4 treble 
V:5 treble 
V:2 bass 
V:3 bass 
V:6 bass 
V:1
 [DFAd]2 x5 | x8 | x8 | x8 | x6 z x | x8 | x7 | x8 | x2 (a/4g/4f/)a/ e/a/d/a/ c/a/d/a/ c/a/B/a/ | %9
 A(c/B/ c/) (3(d/c/d/) (3(e/d/e/ f/)e/d/ e/ f/g/a/b/ | e/f/e/d/ c/B/A/G/ F/E/F/A/ E/A/D/A/ | %11
 C/A/D/A/ C/A/B,/A/ A,(C/B,/ (C/) D/.C/D/) (3(E/D/E/) | F/E/D/E/ F/G/A/B/ c/d/c/B/ A/G/F/E/ | %13
 D/f/e/f/ d/f/c/f/ B/f/A/f/ ^G/f/F/f/ | E/e/d/e/ c/e/B/e/ A/e/^G/e/ F/e/E/e/ | %15
!p! D/d/c/d/ B/d/A/d/ ^G/d/B/d/ E/d/G/d/ | c/A/d/A/ e/A/c/e/ f/d/a/c/ d/e/f/d/ | %17
 B/e/d/e/ A/a/^g/f/ e/d/c/e/ d/c/B/d/ | cA x2 D8 | x13/2 e/d/e/ | c/e/B/e/ A/d/G/c/ [DFAd]2 x z2 | %21
 x2 d/f/e/ d/c/B/A/ ^G/d/c/B/ A/G/F/^E/ | A/c/^G/!p!c/ F/B/E/^A/ [B,DFB]2 x z2 | %23
 x2 ^G/A/c/ B/A/G/F/ ^E/B/A/G/ F/ x/ | z2 B/d/A/=c/ [GB]2 z2 | %25
 x2 g/b/a/ g/f/e/d/ c/d/c/B/ A/G/F/E/ | %26
 D x3/2 (3E/D/E/ F/.E/F/ (3G/F/G/ A/.B/A/ (3G/A/G/ (3F/G/F/ | d/B/A/B/ ^G/B/F/B/ E/B/D/B/ C/ x/ | %28
 [CEA]2 x6 | x8 | z2 x B c/A/B/d/ c/e/A/G/ | F/D/E/G/ F/A/D/=c/ B/G/A/c/ B/d/G/F/ | %32
 E/C/D/F/ E/G/C/B/ ^A/F/^G/B/ A/c/F/E/ | x8 | ^A2 x | x2 ^A/ ^G/ | %36
 d/c/B/c/ d/e/f/d/ g/a/b/a/ g/f/e/d/ | c/g/f/e/ d/c/B/^A/ B/G/F/E/ D/C/B,/C/ | %38
 D/E/F/G/ F/E/D/C/ D/E/F/^G/ ^A/B/c/A/ | [FBf] .A8 | .A8 | %41
[K:bass] x !arpeggio!F,/A,/ D/ G,/C/F,/ B,/ E,/A,/F,/ A,/ E,/A,/D,/A,/ | %42
 ^A/f/B/f/ A/f/^G/f/ FA/.G/ A/ B/.A/B/ c/B/c/ | d/c/B/f/ b/=c'/b/ (3a/.b/a/ g/f/e/ f/ g/a/b/a/ | %44
 g/a/g/ f/.g/f/ e/.g/ e/ d/.g/d/ c/g/d/g/ c/g/B/g/ | %45
 Ac/B/ c/ d/.c/d/ e/.d/e/ f/e/d/A/ d/.e/d/ =c/.d/c/ | B/4 G/4 x3/2 | %47
 G/4E/4F/4G/4A/4B/4c/4d/4 c/4A,/4B,/4C/4D/4E/4F/4G/4 F/4D/4E/4F/4G/4A/4B/4c/4 d/4A/4B/4c/4d/4e/4f/4g/4 | %48
 a/4g/4f/4e/4d/4c/4B/4A/4 G/4F/4E/4D/4C/4[I:staff +1]B,/4A,/4G,/4[I:staff -1] x2 (EFG)A/4B/4c/4d/4 | %49
 e x2 A/G/ A/ F/A/E/ A/ D/G/=C/F/ | [G,B,DG]2 z2 x2 g/b/a/ g/f/e/d/ | c/g/f/e/ d/ x/ | %52
 [EGBe]2 z2 x2 c/d/f/ e/d/c/B/ | ^A/e/d/c/ B/=A/G/F/ B/d/A/d/ G/=c/=F/B/ | %54
 [=CEG=c]2 z2 x2 c/e/d/ c/B/A/G/ | F/G/F/E/ D/ x/ | %56
 =c/B/c/ (3d/.e/d/ (3c/.d/c/ (3B/c/B/ g/e/d/ e/ ^c/e/B/e/ | A/e/G/e/ F/d/E/c/ d x3 | x8 | x8 | %60
 x d/f/ e/c/d/e/ fe x | x5 A/B/ c/ d/e/f/g/ | (f/e/)A/B/ c/A/B/d/ c/e/f/d/ e/g/f/e/ | %63
 d/B/e/f/ ^g/a/b/g/ e/a/A/c/ B/^G/A/B/ | _cB z x5 | x E/F/ ^G/ A/B/c/ d/ (c/B/)E/ F/ G/E/F/A/ | %66
 ^G/B/c/A/ B/d/c/B/ A/F/B/c/ ^d/A/G/A/ | ^G/e/^d/e/ B/e/=d/e/ c/f/^e/f/ F/f/=e/f/ | %68
 d/e/d/c/ B/c/d/B/ ^e/B/A/^G/ F/c/f/=e/ | d/c/B/A/ ^G/F/^E/F/ G/B/d/^e/ ^g/G/F/E/ | %70
 F/A/c/^E/ F/A/c/C/ F/A/c/E/ F/A/c/C/ | F/A/d/^E/ F/A/d/D/ F/A/d/E/ F/A/d/D/ | %72
 ^E/^G/B/^D/ E/G/B/C/ E/G/B/D/ E/G/B/C/ | F/^G/A/^E/ F/G/A/C/ F/G/A/E/ F/G/A/C/ | %74
 F/A/d/^E/ F/A/d/D/ F/A/d/E/ F/A/d/D/ | ^G/B/d/F/ G/B/d/E/ G/B/d/F/ G/B/d/E/ | %76
 A/c/e/^G/ A/c/e/E/ A/c/e/G/ A/c/e/E/ | A/d/f/^G/ A/d/f/F/ A/d/f/G/ A/d/f/F/ | %78
 ^G/B/d/F/ G/B/d/E/ G/B/d/F/ G/B/d/E/ | A/B/c/^G/ A/B/c/E/ A/B/c/G/ A/B/c/E/ | %80
 A/c/f/^G/ A/c/f/F/ A/c/f/G/ A/c/f/F/ | B/^d/f/A/ B/d/f/^G/ B/d/f/A/ B/d/f/F/ | %82
 ^G/B/e/F/ G/B/e/E/ G/B/e/F/ G/B/e/E/ | A/c/e/^G/ A/c/e/F/ A/c/e/G/ A/c/e/E/ | %84
 F/A/d/E/ F/A/d/D/ F/A/d/E/ F/A/d/D/ | ^G/ G/ G/ G/ | ^G/ | x8 | %88
 D/F/B/C/ D/F/B/B,/ D/F/B/C/ D/F/B/B,/ | E/^G/B/D/ E/G/B/C/ E/G/B/D/ E/G/B/B,/ | %90
 C/E/A/B,/ C/E/A/A,/ C/E/A/B,/ C/E/A/A,/ | D/F/A/C/ D/F/A/B,/ D/F/A/C/ D/F/A/B,/ | %92
 D/E/^G/C/ D/E/G/B,/ D/E/G/C/ D/E/G/B,/ | C/E/A/C/ D/^G/B/D/ E/A/c/E/ F/A/d/F/ | %94
 ^G/B/d/F/ G/B/d/E/ G/B/d/F/ G/B/d/E/ | A/B/=c/^G/ A/B/c/^D/ A/B/c/G/ A/B/c/D/ | %96
 =F/^G/B/E/ F/G/B/D/ F/G/B/E/ F/G/B/D/ | E/^G/A/^D/ E/G/A/=C/ E/G/A/D/ E/G/A/C/ | %98
 =D/^G/A/=C/ D/G/A/B,/ D/G/A/C/ D/G/A/B,/ | D/E/^G/=C/ D/E/G/B,/ D/E/G/C/ D/E/G/B,/ | %100
 [^CEA]2 z x3 .D12 | x8 | x8 | x8 | x15/2 | x8 | z/ x15/2 | x7 | x7 | %109
 x2 z2 x2 a/4g/4f/a/ e/a/d/a/ | c/a/d/a/ c/a/B/a/ Ac/B/ c/ d/.c/d/ e/.d/e/ | %111
 f/e/d/e/ f/g/a/b/ e/f/e/d/ c/B/A/G/ | F/E/F/A/ E/A/D/A/ C/A/D/A/ C/A/B,/A/ | %113
 A,C/B,/ C/ (3D/C/D/ E/.D/E/ F/E/D/E/ F/G/A/B/ | c/d/c/B/ A/G/F/E/ D/g/f/e/ d/=c/B/A/ | %115
 G/b/a/b/ g/b/f/b/ e/b/d/b/ c/b/B/b/ | A/a/g/a/ f/a/e/a/ d/a/c/a/ B/a/A/a/ | %117
 G/g/f/g/ e/g/d/g/ c/d/e/c/ A/B/c/A/ | f/d/c/B/ A/B/=c/A/ B/G/d/F/ G/A/B/G/ | %119
 E/A/G/A/ D/d/c/B/ A/G/F/A/ G/F/E/G/ | FD x5 | x8 |[K:bass] x8 | x8 | %124
 z2 x d/c/ B/ A/F/G/ B/ A/F/G/A/ | BA x5 | x D/E/ F/ G/A/B/ =c/ (B/A/)D/ E/ F/D/E/G/ x | %127
 F/A/!p!B/G/ A/=c/B/A/ G/E/A/B/ ^c/d/e/c/ | A/d/D/F/ E/C/D/E/ FE x z2 | x5 A/B/ c/ d/e/f/g/ | %130
 (f/e/)A,/B,/ C/A,/B,/D/ C/E/F/D/ E/G/F/E/ | D/B,/E/F/ G/A/G/F/ E/C/D/E/ F/D/E/F/ | %132
 B,[dg][Be][GB] x afd x3/2 | x gec [DFAd]2 z x | x2 z x4 | x6 z x | x8 | x8 | %138
 x6 D/4E/4F/4G/4A/4B/4=c/4A/4 | %139
 B/4G/4F/4E/4D/4[I:staff +1]=C/4B,/4A,/4[I:staff -1] x4 E/4F/4^G/4A/4B/4^c/4d/4B/4 | %140
 c/4A/4^G/4F/4E/4D/4C/4B,/4 x4 (F/4G/4^A/4)B/4c/4[de]/4c/4 | %141
 d/4B/4A/4G/4F/4E/4D/4C/4 x6 A/4B/4c/4d/4e/4f/4g/4e/4 | %142
 f/4d/4c/4B/4A/4G/4F/4E/4 D/4E/4F/4G/4A/4B/4=c/4A/4 B/4G/4A/4B/4^c/4d/4e/4f/4 x7/4 | %143
 A/4F/4G/4A/4B/4c/4d/4e/4 d/4B,/4C/4D/4E/4F/4G/4A/4 G/4E/4F/4G/4A/4B/4c/4d/4 c/4[I:staff +1]A,/4B,/4C/4[I:staff -1]D/4E/4F/4G/4 | %144
 F/4[I:staff +1]E,,/4F,,/4G,,/4A,,/4!arpeggio!B,,/4C,/4[I:staff -1] x6 | %145
 F/4[I:staff +1]D,/4E,/4F,/4G,/4A,/4B,/4C/4[I:staff -1] D/4E/4F/4G/4A/4B/4c/4d/4 c/4[I:staff +1]A,/4B,/4C/4[I:staff -1]D/4E/4F/4G/4 A/4B/4c/4d/4e/4f/4g/4c/4 | %146
 d a/4 | c g/4 | B f/4 | z/ B e/4 | %150
 .A/4c/4e/4a/4e/4c/4A/4 (.[G,B,]4 F2) d/4f/a/f/d/A/ (D2 A2) c/4e/4a/4e/4c/4A/4 (.[G,B,D]4 .[G,B,]4) d/4f/4a/4f/4d/4A/4 D2 | %151
 [G,B,]4 d/4=f/4b/4f/4d/4B/4 A2 G2 d/4f/4b/4f/4d/4B/4 .B,4 .[B,,,D,,]4 G,/4B,/4_D/4B,/4G,/4E,/4(C,/ .[B,,,D,,]4 G,/4)B,/4D/4B,/4G,/4E,/4 C,2 | %152
 A,,2 F,/4A,/4C/4A,/4F,/4C,/4 ([B,,,D,,F,,]4 A,,2) F,/4A,/4C/4A,/4F,/4C,/4 B,,2 =A,,2 F,/4=A,/4^B,/4A,/4F,/4D,/4 G,,2 A,,2 F,/4A,/4B,/4A,/4F,/4D,/4 F,,2 | %153
 cdcB Af ed | c4 d4 | e/a/4g/4f/a/ e/a/d/a/ c/ a/ d/ x5/2 | A/c/G/c/ F/c/E/c/ D/d/E/d/ F/d/E/D/ | %157
 E/c/F/c/ G/c/F/E/ D/d/E/d/ F/d/E/D/ | E/c/F/c/ G/c/F/E/ F/=c/G/c/ A/c/G/F/ | B4 | A4 | G4 | x8 | %163
 x8 | x8 | x8 | x8 | x8 | x8 | x8 | x8 | x8 | x8 | x8 | x8 | x8 | x8 | x8 | x8 | x8 | x8 | x8 | %182
 x8 | f/A/d/e/ f/A/d/e/ f/A/d/e/ f/A/d/f/ | B/d/f/A/ B/d/f/F/ G/!arpeggio!B/e/F/ G/B/d/E/ | %185
 G/A/c/F/ G/A/c/E/ G/A/c/F/ G/A/c/E/ | F/A/d/E/ !arpeggio!F/A/d/D/ F/A/d/E/ F/A/d/D/ | %187
 ^G/B/d/F/ G/B/d/E/ G/B/d/F/ G/B/d/E/ | A/ B/ c/ x5/2 | A/ B/ c/ x5/2 | c/ d/ e/ x5/2 | %191
 e/ f/ g/ x5/2 | e/ f/ g/ x5/2 | c/ d/ e/ x5/2 | c/4a/4g/4f/4e/4a/4g/4f/4 x11/2 | %195
 x2 ^G/4B/4E/4F/4G/4A/4B/4c/4 d/4B/4c/4d/4e/4f/4^g/4a/4 b/4g/4f/4e/4d/4c/4B/4 | %196
 c/4A/4c/4e/4a/4e/4c/4A/4 E/4C/4[I:staff +1]A,/4[I:staff -1]C/4E/4 G/4E/4C/4[I:staff +1] A,/4[I:staff -1] x3 | %197
 x4 A/4=F/4D/4 x2 G/4E/4C/4 x4 A/4F/4D/4 x2 _B/4G/4E/4 x2 A/4F/4D/4 x2 G/4E/4C/4 x2 AF[Dd] x2 B/4G/4E/4 | %198
 x2 A/4=F/4E/4 x6 F/4_B/4=f/4 x4 G/4E/4D/4 x4 E/4A/4e/4 | %199
 x2 ^F/4D/4=C/4 x2 D/4G/4d/4 x4 E/4G/4^c/4 x2 =F/4D/4B,/4 | %200
 x2 E/4C/4_B,/4 x2 _E/4=C/4(A,/4 x2 D/4)=B,/4^G,/4 x79/4 | x19 | x4 | x23/4 | %204
 ^C/4_B,/4A,/4B,/4C/4B,/4A,/4B,/4 C/4B,/4A,/4B,/4C/4B,/4A,/4B,/4 C/4B,/4A,/4B,/4C/4B,/4A,/4B,/4 C/4B,/4A,/4B,/4C/4B,/4A,/4B,/4 | %205
 D/4=B,/4-B,/4D/4B,/4A,/4B,/4 D/4B,/4A,/4B,/4D/4B,/4A,/4B,/4 D/4B,/4A,/4B,/4D/4B,/4A,/4B,/4 D/4B,/4A,/4B,/4D/4B,/4A,/4B,/4 x/4 | %206
 E/4^C/4=B,/4C/4E/4C/4B,/4C/4 E/4C/4B,/4C/4E/4C/4B,/4C/4 E/4C/4B,/4C/4E/4C/4B,/4C/4 E/4C/4B,/4C/4E/4C/4B,/4C/4 | %207
 =F/4D/4C/4D/4F/4D/4C/4D/4 F/4D/4C/4D/4F/4D/4C/4D/4 F/4D/4C/4D/4F/4D/4C/4D/4 F/4D/4C/4D/4F/4D/4C/4D/4 | %208
 =G/4E/4^D/4E/4G/4E/4D/4E/4 G/4E/4D/4E/4G/4E/4D/4E/4 G/4E/4D/4E/4G/4E/4D/4E/4 G/4E/4D/4E/4G/4E/4D/4E/4 | %209
 A/4=F/4E/4F/4A/4F/4E/4F/4 A/4F/4E/4F/4A/4F/4E/4F/4 A/4F/4E/4F/4A/4F/4E/4F/4 A/4F/4E/4F/4A/4F/4E/4F/4 | %210
 _B/.G/=F/ E/.F/G/ B/.G/ F/ E/.F/G/ B/.G/F/ E/.F/G/ B/.G/F/ E/.F/G/ | %211
 A/.=F/E/ F/.G/A/ (3d/A/G/ F/.G/A/ (3d/A/G/ F/.G/A/ (3d/A/G/ F/.G/A/ | %212
 d/.=F/E/ D/.E/F/ d/.F/ E/ (3D/.E/F/ d/.F/E/ D/.E/F/ d/.F/E/ D/.E/F/ | %213
 (3d/.G/^F/ E/.F/ G/ d/.G/F/ E/.F/G/ d/.G/F/ E/.F/G/ d/.G/F/ E/.F/G/ | %214
 (3c/.G/F/ E/.F/ G/ c/.G/F/ E/.F/G/ c/.G/F/ E/.F/G/ c/.G/F/ E/.F/G/ | %215
 d/.F/E/ D/.E/!p!F/ G/.F/ G/ A/.G/A/ B/=c/B/A/ G/F/E/D/ | E/G/F/A/ G/F/G/E/ A>G F/E/D/C/ | %217
 D/C/B,/D/ F/A/G/F/ G/F/E/G/ B/d/c/B/ | c/d/e/c/ G/B/A/G/ F/d/c/B/ A/G/F/G/ | %219
 A/G/A/B/ c/d/e/c/ d>e e>d | [DFAd]2 x5 | x8 |[K:bass] x8 | x8 | x6 z x | x8 | x6 z x | %227
 x5 [FBd] [Ad][Ac] | [FAd]2 z2 z4 |][M:4/4] x8 | .A8 A8 x4 | x8 | x7 .A8 | %233
 x!mf! F B(c/>d/ ^A)B/>c/ de/>f/ | (c/4^A/4c/4e/4g/4f/4g/4e/4) (d3/2c/4d/4) c(f/e/) (e/d/)(e/c/) | %235
 !arpeggio!d4- d(b/^g/) (d/c/)(d/B/) | !arpeggio!c4- c(a/f/) (=c/B/c/A/) | %237
 B(e/^c/) (G/F/G/E/) F>G E>D | !arpeggio!D2 x6 | x8 | x8 | x8 | x!f! .A4 | %243
 !arpeggio!a4- a(B/d/) (f/^g/f/a/) | .^g4 x4 | f(d/B/) (^G/F/G/)f/ ^e/f/e/f/ .f3/2e/4f/4 | %246
 ^gc x c (B/d/c/B/) (A/^G/^E/F/) | d2- d/(B/^e/f/) A/^B/c/F/ A^G/>F/ | !arpeggio!F2 x6 | x8 | x8 | %251
 x8 | x!mf! c f=g/>a/ ^d>e (f2 | f)B ef/>g/ c>d e2- | %254
 e/d/(a/f/) (=c/B/)(c/A/) B(b/^g/) (d/c/)(d/B/) | (=c/A/)(f/^d/) (A/G/)(A/F/) G/B/d/e/ A/(f/g/a/) | %256
 x8 | x8 | x8 | x8 | x8 | x8 | x8 | x8 | x8 | x8 | x8 | x8 | x8 | x8 | x8 | x8 | x8 | x8 | x8 | %275
 x8 | x8 | x8 |] x8 | x8 | x8 | x8 | x8 | x8 | x8 | x8 | x8 | x8 | x8 | x8 | x8 | x8 | x8 | x8 | %294
 x8 | x8 | x8 | x8 | x8 | x8 | x8 | x8 | x8 | x8 | x8 | x8 | x8 | x8 | x8 | x8 | x8 | x8 | x8 | %313
 x8 | x8 | x8 | x8 | x8 | x8 | x8 | x8 | x8 | x8 | x8 | x8 | x8 | x8 | x8 | x8 | x8 | x8 | x8 | %332
 x8 | x8 | x8 | x8 | x8 | x8 | x8 | x8 | x8 | x8 | x8 | x8 | x8 | x8 | x8 | x8 | x8 | x8 | x8 | %351
 x8 | x8 | x8 | x8 | x8 | x8 | x8 | (EG)c (c^A)B | (c^A)B (FB)A | B x3 .A8 | x6 | .A12 | %363
 (Bf)b (b^a)b | (df)b (b^a)b | (ef)g (ef)d | (ce)^a (a^g)a | d x | g x | ^A x | d x z x2 | x6 | %372
 x5 | z x c2 f>c | x4 | d>d (ec) d | c4 | c>c f>d | B4 | Bcd cdB | AF^G AcB | c z2 | EF ^GB A | %383
 B z2 | DE F(A ^G) | AC^D ^E^GF | ^GBA GBA | T^G4- | G^EF ^GFG | AF^G AGA | B^GA BAB | cAB cBc | %392
 dBc dcd | ^GBA GFG | AA,B, CB,C | DB,C DCD | ^G,A,B, C2- x | CDE F2- x | F>F x ^EF^G | C>c x Bcd | %400
 T^E3/2 ^D/4 x/4 | Bcd cdB | A^GF x2 | x2 z .A8 z | x z x z | x z .D8 z | x z x | x2 z | x z x | %409
 x z x z | x3 z | x5/2 z x2 | x z x2 z | x2 z x z | x2 z x z | x2 | x z x2 z | x z x z | %418
 x2 z x2 z | x2 z x | x4 | x4 | (ce)a (a^g)a | (ce)a (a^g)a | (de)f (de)c | (Bd)^g (gf)g | %426
 (ce)a (a^g)a | (fd)B (^GB)A | (^GB)A (GAB) | cAB ced | ecd egf | g4- | g4 | x8 | G2 A2 Bdc | %435
 dBc dfe | f4- | f4- | f>f b>f | gfe x5/2 | B>F x Bdc | dBc dfe | f>B x f>c x | dcB ^ABc | %444
 F2 x e2- x | edc Bc^A | gfe dec | B>F x B>F x | GFE DEF | x6 | DB,C DFE | FDE FA^G | A4- | %453
 A=cB AGF | G4- | GBA GFE | TF4- | F4- | FDE FAG | AFG AcB | c4- | c4- | cAB ced | ecd egf | Tg4- | %465
 (gef g)ef | g4- | gba gfe | fag fed | egf edc | dfe dcB | ced cdc | BAB cd/c/B/A/ | ^G>F x ^EGB | %474
 AcB Acf | Bdc Bf^e | fAB cde | dfe dfb | (^g^e)f =g2- | gfe dcB | cfe ^def | Bef gab | %482
 =c'^de Bed | eBA GFG | EAG FGA | DGA B x | GAB E>e x | ad=c BAG | A2- A/G/F/E/^D/E/ | FBA GFE | %490
 FB^A BfA | B x z2 | x4 z2 (f^A)B | c>F B^G ^E | F>C D^A, B, | x4 | x4 | x4 | x6 | .A12 | %500
 x DE F^GA | ^GEF G^AB | ^AF^G ABc | B^GA Bcd | c^AB cde | fdB .fdB | .fdB FB^A | B2 z2 | %508
 [DFAd]2 z2 | x6 | z6 | z6 | z2 x2 z3/2 x/ | x z x2 z x | x d2 a>e | fed cde | AcB ABc | FBA ^GcB | %518
 A/^G/A/B/c/d/ e/f/e/d/c/B/ | A/c/B/A/^G/F/ E/F/E/D/C/B,/ | x3 A2 x | A2 ^G2 | A4 | AcB A^GF | %524
 E4- | ECD EDE | FA^G FAG | F^DE FEF | ^G2 x4 | [Ace] x2 [FBd]2 x | [^GBd] x2 c>d x | e>f x B>A | %532
 A2 | x3 | x5/2 z x2 z | x z x z | x2 z x | x2 z | x2 z | x5 | x z z2 | x8 | x8 | x8 | x8 | x8 | %546
 x8 | x8 | x8 | x8 | x8 | x8 | x8 | x8 | x8 | x8 | x8 | x8 | x8 | x8 | x8 | x8 | x8 | x8 | x8 | %565
 x8 | x8 | x8 | x8 | x8 | x8 | x8 | x8 | x8 | x8 | x8 | x8 | x8 | x8 | x8 | x8 |] %581
V:2
 [F,A,]2 x5 | F,E,F,D, A,B,CA, | DCB,A, G,F,E,D, | C,D,G,,F,, E,,D,,.C,,C, | %4
 D,B,,G,,A,, B,,/C,/D,/E,/ F,/G,/A,/F,/ | B,A,!<(!G,F, E,D, C,A,, | D,F, G,A,/G,/ F,G, C,/C,/ | %7
 D,/D,/C,/C,/ D,/D,/F,,/F,,/ G,,G,A,A,, | D,2 x3/2 z2 x4 | x A,/G,/ A,/ F,/A,/E,/ A,/ D,D/ C/ DD, | %10
 A,A,,B,,C, D,2 z2 | z4 x A,,/G,,/ A,,/ F,,/A,,/E,,/A,,/ x/ |!p! D,,D,/C,/ D,D,, A,,A,B,C | %13
 D,/D/C/D/ B,/D/A,/D/ ^G,/D/F,/D/ E,/D/D,/D/ | C,/C/B,/C/ A,/C/^G,/C/ F,/C/E,/C/ D,/C/C,/C/ | %15
 B,,/B,/A,/B,/ ^G,/B,/F,/B,/ E,/B,/D,/B,/ C,/B,/B,,/B,/ | %16
 A,,/A,/B,,/A,/ C,/A,/A,,/A,/ D,/A,/E,/A,/ F,/A,/D,/A,/ | E,E,, x/ F,/E,/D,/ C,D, E,E,, | %18
 A,,2 A,, E,F,.^G,E, x5 | C,B,,C,A,, E,/E/D/E/ C/E/B,/E/ | A,2 x A,,2 D,/A,/G,/A,/ F,/A,/D,/F,/ | %21
 B,,2 x3/2 z2 x E,A,C, | F,2 x F,,2 B,,/F,/E,/F,/ D,/F,/B,,/D,/ | ^G,,2 x3/2 z2 x C,2 | %24
 D,2 x D, G,/D/=C/D/ B,/D/G,/B,/ | E,2 x3/2 z2 x E,A,A,, | %26
 x D,/=C,/ D,/ B,,/D,/A,,/ D,/ x/ G,,/D,/F,,/D,/ x/ E,,/D,/D,,/D,/ | B,,2 z2 x B,,2 | %28
 A,.^G,.F,E, D,C,B,,A,, | ^G,,A,,D,C, (B,,A,,) G,,^G, | A,.F,D,E, A,E, A,,C, | %31
 D,A, DF, G,D, G,,B,, | C,B,, C,E, F,C, F,,^A,, | x8 | x3 | x3 | %36
 B,,/B,,/D,/D,/ F,/F,/B,/B,/ E,/E,/G,/G,/ B,/B,/E/E/ | F,2 x F, B,,C, D,E, | F,E,F,F,, B,,2 x F, | %39
 DCB,A, G,F,E,D, x | C,B,, B,,^A,, B,,G,, E,,F,, | B,,D x/ (3C/D/C/ (3B,/C/B,/^A, x z2 | %42
 z4 x F,/E,/ F,/ D,/F,/C,/F,/ x | B,,/F,/A,,/F,/ G,,/F,/F,,/F,/ x/ E,,2 z2 | A,,2 x z2 x z4 | %45
 x A,/G,/ A,/ F,/A,/E,/ A,/ x D,/A,/=C,/A,/ B,,/A,/A,,/A,/ x | G,,2 | z8 | %48
 x4 F,/4D,/4E,/4F,/4G,/4A,/4B,/4C/4 x4 | x A,/G,/ A,/ F,/A,/E,/ A,/ D,2 x D,, | %50
 G,,/D,/=C,/D,/ B,,/D,/G,,/B,,/ E,,2 x7/2 | x A,,2 | E,/B,/A,/B,/ G,/B,/E,/G,/ C,2 x3/2 z2 | %53
 x F, B,D, G,2 x G,, | =C,/G,/=F,/G,/ E,/G,/C,/E,/ A,,2 x3/2 z2 | x A,,2 | %56
 =C,/G,/B,,/G,/ x/ A,,/G,/G,,/ G,/ E,2 z2 | x E,A,A,, DCB,A, | G,F,E,D, C,D,G,F, | %59
 E,D,C,A,, D,B,,(G,,A,,) | F,,G,, x G,, ^G,,A,,A,, | ^A,,B,, C,/=A,/B,/C/ DCB,A, x/ | %62
 G,2 x F, E,D,C,D, | B,,A,, E,D, C,D, x D, | ^D,E, x E, ^E,F, ^G,/=E,/F,/G,/ | %65
 A,^G, x/ F,E, D,2 x C, | B,,A,, ^G,,A,, F,,E,, B,,B, | EE, ^G,E, x F, A,F, | x ^G, B,G, x A, CA, | %69
 x B, DB, x C ^EC | F,^G,A,B, A,B,A,G, | F,^G,A,G, F,G,A,F, | ^G,A,B,A, G,F,G,^E, | %73
 F,^G,A,B, A,B,A,G, | F,^G,A,G, F,E,D,C, | B,,A,,^G,,F,, E,,D,C,B,, | A,,B,,C,D, C,D,C,B,, | %77
 A,,A,F,D, A,,A,F,D, | A,,DB,^G, E,B,G,E, | A,,2 z2 z4 | A,CFC A,F,^D,F, | ^G,,2 x2 z4 | %82
 ^G,B,EB, G,E,C,E, | F,,2 z2 z4 | F,A,DA, F,D,B,,D, | x2 | x/ | x8 | D,F,B,F, D,B,,^G,,B,, | %89
 C,,2 z2 z4 | C,E,A,E, C,A,,F,,A,, | B,,,2 z2 z4 | E,,B,^G,E, B,,E,B,,^G,, | E,,A,E,C, A,,E,C,A,, | %94
 E,,^G,E,B,, ^G,,E,B,,G,, | E,,A,F,^D, =C,D,C,A,, | E,,B,^G,=F, D,F,D,B,, | E,,=CA,E, =C,E,C,A,, | %98
 E,,DB,=F, D,F,D,B,, | E,,EB,^G, E,B,, ^G,,E,, | A,,2 x A,,2 E,F,^G,E, x9 | %101
 C,B,,C,A,, E,D, C,D,/E,/ | F,^G,/A,/ B,B,, E,F,/G,/ A,A,, | D,E,/F,/ ^G,,^G, C,D,/E,/ F,,F, | %104
 B,,A,,B,,E, A,,A, F,/G,/A,/ | B,A,B,E, A,G,A,D, | G,F,G,C, F,E,.F,B,, | E,D,E,A,, D,DD | %108
 CA,A, D/D/A,/A,/ F,/F,/D,/D,/ | A,/A,/E,/E,/ C,/C,/A,,/A,,/ D,2 x3/2 z2 | %110
 x5 A,/G,/ A,/ F,/A,/E,/A,/ x | D,D/C/ DD, A,A,,B,,C, | D,2 z2 z4 | %113
 x _A,,/G,,/ A,,/ F,,/A,,/E,,/ A,,/ x/ D,,D,/C,/ D,D,, | A,,A,B,C D/E/D/=C/ B,/A,/G,/F,/ | %115
 G,/G/F/G/ E/G/D/G/ ^C/G/B,/G/ A,/G/G,/G/ | F,/F/E/F/ D/F/C/F/ B,/F/A,/F/ G,/F/F,/F/ | %117
 E,/E/D/E/ C/E/B,/E/ A,/E/G,/E/ F,/E/E,/E/ | D,/D/E,/D/ F,/D/D,/D/ G,/D/[K:treble]f/b/ g/b/e/b/ | %119
 A,A,, x/ B,/A,/G,/ F,G,A,A,, | D,2 D, A,B,CA, | F,E,F,D, A,B,CA, | DCB,A, G,F,E,D, | %123
 C,D,G,,F,, E,,D,,C,,C, | D,B,,G,,A,, x/ =C,2 x C, | ^C,D,D, ^D, E, F,/=D,/E,/F,/ | %126
 G,F,E,D, x/ =C,2 x B,,2 | A,,G,,F,,G,, E,,D,, A,,G,, | F,,G,, x G,,2 ^G,,A,, x A,, | %129
 ^A,,B,, C,/=A,,/B,,/C,/ D,C,B,,A,, x/ | G,,2 x F, E,D,C,D, | B,,A,, E,D, C,A,, D,D,, | %132
 G,,2 x G, F, x2 B,,2 z/ | E, x2 A,, D,D x D | CA, x A, .F,D,D, | B,,E,D,E, A,,A,/B,/ C/D/E/C/ | %136
 DCB,A, G,F,E,D, | C,D, G,,.F,, E,,D,,C,,C, | D,B,,.G,,A,, F,,/4D,/4E,/4F,/4G,/4A,/4B,/4C/4 x2 | %139
 x2 G,/4F,/4E,/4D,/4=C,/4B,,/4A,,/4G,,/4 ^G,,/4E,/4F,/4^G,/4A,/4B,/4C/4[I:staff -1]D/4[I:staff +1] x2 | %140
 x2 A,/4^G,/4F,/4E,/4D,/4C,/4B,,/4A,,/4 ^A,,/4F,/4G,/4^A,/4B,/4C/4[I:staff -1]D/4E/4[I:staff +1] x7/4 | %141
 x2 B,(A,G,E,/4)D,/4C,/4B,,/4 C,/4A,/4B,/4C/4[I:staff -1]D/4E/4F/4G/4[I:staff +1] x2 | x31/4 | x8 | %144
 x/4 D,,2 x11/2 | x8 | x5/4 | x5/4 | x5/4 | x7/4 | x55/2 | x57/2 | x24 | x8 | %154
 A,/C/G,/C/ F,/C/E,/C/ D,/D/E,/D/ F,/D/G,/D/ | A,DCB, (A,4 | A,)B,A,G, F,G, A,G,/F,/ | %157
 G,A, B,A,/G,/ F,G, A,G,/F,/ | G,F,E,A,, x4 | G,/ D/ A,/ x5/2 | F,/ C/ G,/ x5/2 | %161
 E,/ B,/ F,/ x5/2 | x8 | x8 | x8 | x8 | x8 | x8 | x8 | x8 | x8 | x8 | x8 | x8 | x8 | x8 | x8 | x8 | %178
 x8 | x8 | x8 | x8 | x8 | DED=C B,A,G,F, | G,A,G,F, E,D,C,B,, | A,,B,A,G, F,E, D,C, | %186
 B,,C,D,C, B,,A,,^G,,F,, | E,,A,^G,F, E,D,C,B,, | A,,4 | A,,4 | A,,4 | A,,4 | A,,4 | A,,4 | %194
 A,,/ x7 | B,/4[I:staff -1]C/4D/4E/4F/4^G/4A/4F/4[I:staff +1] x23/4 | %196
 x17/4 E,/4 C,/4 A,,/4 C,/4 E,2 | %197
 [F,,A,,]4 x3/4 _B,2 x3/4 .[A,,C,]4 x3/4 G,2 x3/4 A,2 x3/4 B,2 x3/4 A,2 x3 G,2 x3/4 | %198
 A,2 x3/4 [D,F,]4 z2 x3/4 .[C,E,]4 x3/4 .[C,E,G,]4 x3/4 | %199
 B,2 x3/4 _B,2 x3/4 .[A,,C,]4 x3/4 ^G,2 x3/4 | %200
 =G,2 x3/4 F,2 x3/4 =F,2 x3/4 E,2 C/4_B,/4G,/4 ^D,2 =C/4A,/4F,/4[K:treble+8] .[=B,D]4 =g/4(^e/4=d/4 [B,D]4) _g/4=e/4(c/4 .[B,D]4 f/4)^d/4^B/4 | %201
 .[B,,,,D,,,]4 ^G,,/4=F,,/4=D,,/4 .[B,,,,D,,,F,,,]4 =E/4C/4A,/4 F,2 ^D/4^B,/4=A,/4 ^E,2 =D/4=B,/4=G,/4 F,/4G,/4^A,/4B,/4 C/4D/4E/4C/4 F,/4A,/4B,/4C/4 D/4E/4F/4D/4 | %202
 F,/4B,/4C/4=D/4 E/4F/4_G/4E/4 F,/4A,/4B,/4C/4 D/4E/4F/4D/4 | %203
 A,,,/4C,,/4D,,/4 E,,/4F,,/8E,,/8F,,/4 A,,,/4D,,/4 E,,/4 F,,/4G,,/8F,,/8G,,/4 A,,,/4E,,/4F,,/4 G,,/4A,,/8G,,/8A,,/4 A,,,/4F,,/4G,,/4 x/ | %204
 A,,,G,, E,,C,, A,,,G,, E,,C,, | A,,,^G,, =F,,D,, A,,,G,, F,,D,, | A,,,_B,, G,,E,, A,,,B,, G,,E,, | %207
 A,,,=B,, ^G,,=F,, A,,,B,, G,,F,, | A,,,^C, _B,,G,, A,,,C, B,,G,, | A,,,D, A,,=F,, D,,A,, F,,D,, | %210
 A,,,C, x A,,, C, x A,,,C, x A,,,C, x | A,,,D, x A,,, D, x/ A,,,D, x/ A,,,D, x/ | %212
 A,,,^G,, x A,,, G,, x/ A,,,G,, x A,,,G,, x | A,,,=G,, x/ A,,,G,, x A,,,G,, x A,,,G,, x | %214
 A,,,G,, x/ A,,,G,, x ^A,,,G,, x A,,,G,, x | %215
 (3B,,,/D,,/C,,/ x/ B,,,/.C,,/D,,/ E,,/.D,,/ E,,/ x3/2 G,,,/G,,/A,,,/G,,/ B,,,/G,,/G,,,/G,,/ | %216
 C,,/G,,/D,,/G,,/ E,,/G,,/C,,/G,,/ F,,,/F,,/G,,,/F,,/ A,,,/F,,/F,,,/F,,/ | %217
 B,,,/F,,/C,,/F,,/ D,,/F,,/B,,,/F,,/ E,,,/E,,/F,,,/E,,/ G,,,/E,,/E,,,/E,,/ | %218
 A,,,/E,,/B,,,/E,,/ C,,/E,,/A,,,/E,,/ D,,,/D,,/E,,,/D,,/ F,,,/D,,/E,,,/D,,/ | %219
 F,,,/D,,/G,,,/D,,/ A,,,/(D,,/^A,,,/)C,,/ B,,,/F,,/B,,/G,,/ A,,=A,,, | [F,,A,,]2 x5 | %221
 F,,E,,F,,D,, A,,B,,C,A,, | D,C,B,,A,, G,,F,,E,,D,, | C,,D,,G,,,F,,, E,,,D,,,C,,,C,, | %224
 D,,B,,,G,,,A,,, B,,,/C,,/D,,/E,,/!<)! F,,/G,,/A,,/F,,/ | B,,A,,!ped!G,,F,, E,,D,, C,,A,,, | %226
 D,,F,, G,,A,,/G,,/ F,,G,, x C,,/C,,/ | D,,/D,,/C,,/C,,/ D,,/D,,/F,,,/F,,,/ G,,,G,,A,,A,,, | %228
 D,,2 z2 z4 |][M:4/4] B,,A,,G,,E,, F,,E,, D,,(C,,/>B,,,/) | %230
 F,,^G,,/>^A,,/ B,,C,/>D,/ x12 E,,F,,/>=G,,/ =A,,A,,, | D,,G,, C,,D,,/>E,,/ F,,E,, D,,C,, | %232
 B,,,B,,, .E,,F,,/>G,,/ ^A,,,B,,, F,,F,,, x7 | B,,,A,,, G,,,2 F,,,4- | F,,,4 F,,,F,,^G,,^A,, | %235
 B,,B,,,/>C,,/ D,,C,,/>B,,,/ E,,E,,F,,^G,, | A,,A,,,/>B,,,/ C,,B,,,/>A,,,/ D,,D,,E,,F,, | %237
 G,,/F,,/G,,/E,,/ C,,A,,, D,,G,, A,,A,,, | D,,!p!C,,B,,,G,,, A,,,G,,,.F,,,D,,, | %239
 A,,,A,, D,E,/>(F,/ C,=C,) .B,,A,,/>G,,/ | A,,.F,, B,,C,/>D,/ E,,G,, .F,,E,,/>D,,/ | %241
 G,,3 F,,/>E,,/ B,,G,,A,,A,,, | D,, D, C, x2 | F,,C,, F,,^G,,/>A,,/ B,,F,, D,,B,,, | %244
 E,,B,,, E,,F,,/>^G,,/ A,,E,, C,,A,,, | %245
 D,,2 x (D,/B,,/) (^G,,/F,,/G,,/)B,,/ !tenuto!A,,/G,,/A,,/(F,,/ | %246
 C,B,,) A,,^G,,/>F,,/ G,,C,, x F,, | B,,C,/>D,/ ^E,,C,, F,,A,,,/>B,,,/ C,,C,,, | %248
 F,,E,,D,,B,,, C,,B,,, A,,,^G,,,/>F,,,/ | C,,^D,,/>^E,,/ F,,^G,,/>A,,/ B,,,C,,/>=D,,/ =E,,E,,, | %250
 A,,,D,, ^G,,,A,,,/>B,,,/ C,,B,,,A,,,G,,, | F,,,F,, B,,(C,/>D,/) ^E,,F,, .C,.C,, | %252
 F,,,F,,/>^G,,/ A,,=G,,/>F,,/ B,,B,,,/>C,,/ ^D,,C,,/>B,,,/ | %253
 E,,E,,/>F,,/ G,,F,,/>E,,/ A,,A,,,/>B,,,/ C,,B,,,/>A,,,/ | %254
 D,,D,,/E,,/ .F,,E,,/>D,,/ G,,E,,/(F,,/ (!tenuto!^G,,)F,,/>E,,/ | !tenuto!A,,2) x ^D,, E,,G,, x2 | %256
 x8 | x8 | x8 | x8 | x8 | x8 | x8 | x8 | x8 | x8 | x8 | x8 | x8 | x8 | x8 | x8 | x8 | x8 | x8 | %275
 x8 | x8 | x8 |] x8 | x8 | x8 | x8 | x8 | x8 | x8 | x8 | x8 | x8 | x8 | x8 | x8 | x8 | x8 | x8 | %294
 x8 | x8 | x8 | x8 | x8 | x8 | x8 | x8 | x8 | x8 | x8 | x8 | x8 | x8 | x8 | x8 | x8 | x8 | x8 | %313
 x8 | x8 | x8 | x8 | x8 | x8 | x8 | x8 | x8 | x8 | x8 | x8 | x8 | x8 | x8 | x8 | x8 | x8 | x8 | %332
 x8 | x8 | x8 | x8 | x8 | x8 | x8 | x8 | x8 | x8 | x8 | x8 | x8 | x8 | x8 | x8 | x8 | x8 | x8 | %351
 x8 | x8 | x8 | x8 | x8 | x8 | x8 | B,,, x2 z2 x | B,,, x2 z2 x | B,,,>F,, B,,D, C, x7 | %361
 D,C,B,, ^A,,B,,C, | .F,,2- F,,G,, E,, x7 | D,,C,,B,,, z2 x | B,,, x2 z2 x | B,,, x2 z2 x | %366
 B,,, x2 z2 x | B,,,2 | B,,,2 | B,,,2 | B,,,>F,, B,,A,, ^G,, | A,,^G,,F,, ^E,,F,,G,, | %372
 C,,2- C,,D,, B,,, | A,,,^G,,,F,,, z2 x | F,,,2 z2 | F,,, x z2 x | F,,,2 z2 | F,,,2 z2 | F,,,2 z2 | %379
 F,,,2 x z2 x | F,,,>C,, x F,,A,,^G,, | A,, z2 | C,,D,, E,,^G,, F,, | ^G,, z2 | %384
 B,,,C,, D,,(F,, ^E,, | F,,)A,,,B,,, C,,^E,,^D,, | ^E,,^G,,F,, E,,G,,F,, | ^E,,4- | %388
 E,,C,,^D,, ^E,,D,,E,, | F,,D,,E,, F,,E,,F,, | ^G,,E,,F,, G,,F,,G,, | A,,F,,^G,, A,,G,,A,, | %392
 B,,^G,,A,, B,,A,,B,, | ^E,,^G,,F,, E,,^D,,E,, | F,,F,,,^G,,, A,,,G,,,A,,, | %395
 B,,,^G,,,A,,, B,,,A,,,B,,, | C,,2- x C,,D,,E,, | F,,2- x F,,^G,,^A,, | B,,C,D, C,^D,^E, | %399
 F,,^G,,A,, G,,A,,B,, | A,, B,, | B,,, x2 C,, x2 | F,,,2 x A,,,2 | B,,,2 x C,,2 x7 | %404
 D,, x .^D,, x | E,, x F,, x8 | G,, x ^G,, | A,,B,, x | C, x C,, | D,, x E,, x | .F,, F,,,2 x | %411
 ^G,,,2 z/ x ^G,,2 | A,, x A,,,2 x | B,,,2 x B,, x | C,2 x C,, x | D,,D, | D, x C,2 x | D, x E, x | %418
 F,E,D, C,^D,E, | ^D,2 x B,, | E,>=D, C,>F,, | E,,>D,, E,,>E,,, | A,,,2 x A,, x2 | A,,,2 x A,, x2 | %424
 A,,,2 x A,, x2 | A,,,2 x A,, x2 | A,,, x2 A,, x2 | A,,,2 x A,, x2 | A,,, x2 A,, x2 | %429
 A,,,C,,E,, A,,C,B,, | C,A,,B,, C,E,^D, | E,4- | E,4 | x8 | E,,2 F,,2 G,,B,,A,, | %435
 B,,G,,A,, B,,D,C, | TD,4- | D,4- | D, x z2 | x11/2 | x6 | B,,>F,, x B,,D,C, | D,B,,C, D,F,E, | %443
 F,>B,, x F,>C, x | D,C,B,, ^A,,B,,C, | F,,2 x E,2- x | E,D,C, B,,C,^A,, | x6 | %448
 B,,>F,, x B,,>F,, x | B,,>F,, x B,,[I:staff -1]D,C |[I:staff +1] B,,>F,,, x B,,,D,,C,, | %451
 D,,B,,,C,, D,,F,,^E,, | TF,,4- | F,,A,,G,, F,,E,,^D,, | E,,4- | E,,G,,F,, E,,D,,C,, | D,,4 | %457
 D,,4- | D,,F,,,A,,, D,,F,,E,, | F,,D,,E,, F,,A,,^G,, | TA,,4- | A,,4- | A,,C,,E,, A,,C,B,, | %463
 C,A,,B,, C,E,D, | TE,4- | E,C,D, E,C,D, | TE,4- | E,G,F, E,D,C, | D,F,(E, D,)C,B,, | %469
 C,E,D, C,B,,A,, | B,,D,C, B,,A,,^G,, | A,,C,B,, A,,B,,A,, | ^G,,A,,G,, F,,^E,,F,, | %473
 C,,^E,,^D,, C,,D,,E,, | F,,A,,^G,, F,,^E,,F,, | ^G,,B,,A,, G,,F,,G,, | A,,C,B,, A,,^G,,F,, | %477
 B,,D,C, B,,A,,^G,, | C, x2 C,,2 | F,, x2 z2 x | F,, x2 F,,,2 x | G,,, x2 z2 x | A,,,2 x B,,,2 x | %483
 E,,,2 x z2 x | A,,, x2 D,, x2 | B,,, x2 G,,,2 | E,,,F,,,G,,, A,,,B,,,=C,, | D,,,2 x G,,, x2 | %488
 D,, =C,,2 x2 | x6 | B,,,>F,, x B,,>F,, x | G,,>F,, G,,>E,, | F,,4- x5 | F,,4- x | F,,4 x | (F,,4 | %496
 F,,4-) | F,,3 x | D,,C,,B,,, ^A,,,B,,,C,, | F,,,2- F,,,F,, E,, x7 | D,,B,,,C,, D,,E,,F,, | %501
 E,,C,,D,, E,,F,,G,, | F,,D,,E,, F,,G,,A,, | G,,E,,F,, ^G,,A,,B,, | A,,F,,^G,, ^A,,B,,C, | %505
 B,,>G,, x D,,>E,, x | F,,>E,, x F,,>F,,, x | B,,,2 z2 | [F,,A,,]2 z2 | z6 | z6 | z6 | %512
 x2 A,,2 D,>A,, | B,,A,,G,, F,,G,,A,, | D,, x2 C,, x | D,, x2 E,, x2 | F,, x2 C,,2 x | %517
 D,, x2 E,, x2 | F,, x2 E,, x2 | F,, x2 ^G,, x2 | A,,2 x4 | D, x3 | x4 | x6 | x4 | x6 | x6 | x6 | %528
 x3 C,/D,/C,/B,,/A,,/^G,,/ | F,,/E,,/F,,/^G,,/A,,/F,,/ B,,/C,/B,,/A,,/G,,/F,,/ | %530
 E,,/D,,/E,,/F,,/^G,,/E,,/ F,,/A,,/G,,/F,,/E,,/D,,/ | C,,B,,,A,,, E,,>E,,, | A,,,F,,, | %533
 G,,,2 A,,, | B,,,2 z/ x C,,2 x | D,, x E,, x | F,,2 x F,, | G,,A,, x | B,,A,, x | B,, .E,,4 | %540
 D, x z2 | x8 | x8 | x8 | x8 | x8 | x8 | x8 | x8 | x8 | x8 | x8 | x8 | x8 | x8 | x8 | x8 | x8 | %558
 x8 | x8 | x8 | x8 | x8 | x8 | x8 | x8 | x8 | x8 | x8 | x8 | x8 | x8 | x8 | x8 | x8 | x8 | x8 | %577
 x8 | x8 | x8 | x8 |] %581
V:3
 D,2 D, A,B,CA, | x8 | x8 | x8 | x8 | x8 | x7 | x8 | x19/2 | x17/2 | x8 | x9 | x8 | x8 | x8 | x8 | %16
 x8 | x8 | x12 | x8 | x9 | x19/2 | x9 | x17/2 | x8 | x19/2 | x19/2 | x7 | x8 | x8 | x8 | x8 | x8 | %33
 x8 | x3 | x3 | x8 | x8 | x8 | x9 | x8 | x17/2 | x19/2 | x17/2 | x10 | x21/2 | x2 | x8 | x10 | %49
 x17/2 | x19/2 | x3 | x19/2 | x8 | x19/2 | x3 | x17/2 | x8 | x8 | x8 | x7 | x17/2 | x8 | x8 | x8 | %65
 x17/2 | x8 | x8 | x8 | x8 | x8 | x8 | x8 | x8 | x8 | x8 | x8 | x8 | x8 | x8 | x8 | x8 | x8 | x8 | %84
 x8 | x2 | x/ | x8 | x8 | x8 | x8 | x8 | x8 | x8 | x8 | x8 | x8 | x8 | x8 | x8 | x18 | x8 | x8 | %103
 x8 | x15/2 | x8 | x8 | x7 | x7 | x19/2 | x19/2 | x8 | x8 | x9 | x8 | x8 | x8 | x8 | %118
 x5[K:treble] x3 | x8 | x7 | x8 | x8 | x8 | x9/2 =C,,2 x2 | x7 | x19/2 | x8 | x9 | x17/2 | x8 | %131
 x8 | x19/2 | x8 | x7 | x8 | x8 | x8 | x8 | x8 | x31/4 | x10 | x31/4 | x8 | %144
 x7/4 D,/4E,/4F,/4G,/4A,/4B,/4C/4D/4 C/4A,,/4B,,/4C,/4D,/4E,/4F,/4G,/4 A,/4B,/4C/4[I:staff -1]D/4E/4F/4G/4E/4 | %145
 x8 | x5/4 | x5/4 | x5/4 | x7/4 | x55/2 | x57/2 | x24 | x8 | x8 | x8 | %156
[I:staff +1] C,2 x A,, D,2 z2 | A,,2 z2 A,,2 x2 | A,,2 z2 D,E,F,E,/D,/ | x4 | x4 | x4 | x8 | x8 | %164
 x8 | x8 | x8 | x8 | x8 | x8 | x8 | x8 | x8 | x8 | x8 | x8 | x8 | x8 | x8 | x8 | x8 | x8 | x8 | %183
 x8 | x8 | x8 | x8 | x8 | x4 | x4 | x4 | x4 | x4 | x4 | x15/2 | x31/4 | x29/4 | x113/4 | x19 | %199
 x13 | x55/4[K:treble+8] x57/4 | x19 | x4 | x5 A,,/4B,,/8A,,/8B,,/4 | x8 | x8 | x8 | x8 | x8 | x8 | %210
 x12 | x21/2 | x23/2 | x23/2 | x23/2 | x3/2 B,,,- x/ B,,, A,,, x5 | x8 | x8 | x8 | x8 | %220
 D,,2 D,, A,,B,,C,A,, | x8 | x8 | x8 | x8 | x8 | x8 | x8 | x8 |][M:4/4] x8 | x20 | x8 | x15 | x8 | %234
 x8 | x8 | x8 | x8 | x8 | x8 | x8 | x8 | x5 | x8 | x8 | x8 | x8 | x8 | x8 | x8 | x8 | x8 | x8 | %253
 x8 | x8 | x5 z .=C,,B,,,/>A,,,/ | x8 | x8 | x8 | x8 | x8 | x8 | x8 | x8 | x8 | x8 | x8 | x8 | x8 | %269
 x8 | x8 | x8 | x8 | x8 | x8 | x8 | x8 | x8 |] x8 | x8 | x8 | x8 | x8 | x8 | x8 | x8 | x8 | x8 | %288
 x8 | x8 | x8 | x8 | x8 | x8 | x8 | x8 | x8 | x8 | x8 | x8 | x8 | x8 | x8 | x8 | x8 | x8 | x8 | %307
 x8 | x8 | x8 | x8 | x8 | x8 | x8 | x8 | x8 | x8 | x8 | x8 | x8 | x8 | x8 | x8 | x8 | x8 | x8 | %326
 x8 | x8 | x8 | x8 | x8 | x8 | x8 | x8 | x8 | x8 | x8 | x8 | x8 | x8 | x8 | x8 | x8 | x8 | x8 | %345
 x8 | x8 | x8 | x8 | x8 | x8 | x8 | x8 | x8 | x8 | x8 | x8 | x8 | x6 | x6 | x12 | x6 | x12 | x6 | %364
 x6 | x6 | x6 | x2 | x2 | x2 | x5 | x6 | x5 | x6 | x4 | x5 | x4 | x4 | x4 | x6 | x6 | x3 | x5 | %383
 x3 | x5 | x6 | x6 | x4 | x6 | x6 | x6 | x6 | x6 | x6 | x6 | x6 | x6 | x6 | x6 | x6 | x2 | x6 | %402
 x5 | x12 | x4 | x11 | x3 | x3 | x3 | x4 | x4 | x11/2 | x5 | x5 | x5 | x2 | x5 | x4 | x6 | x4 | %420
 x4 | x4 | x6 | x6 | x6 | x6 | x6 | x6 | x6 | x6 | x6 | x4 | x4 | x8 | x7 | x6 | x4 | x4 | x4 | %439
 x11/2 | x6 | x6 | x6 | x6 | x6 | x6 | x6 | x6 | x6 | G,,F,,E,, D,,E,,F,, | x6 | x6 | x4 | x6 | %454
 x4 | x6 | x4 | x4 | x6 | x6 | x4 | x4 | x6 | x6 | x4 | x6 | x4 | x6 | x6 | x6 | x6 | x6 | x6 | %473
 x6 | x6 | x6 | x6 | x6 | x5 | x6 | x6 | x6 | x6 | x6 | x6 | x5 | x6 | x6 | x5 | x6 | x6 | x4 | %492
 F,,,4- x5 | F,,,4 x | F,,,4 x | F,,,4 | F,,,4- | F,,,>B,,, F,,>.C,, | x6 | x12 | x6 | x6 | x6 | %503
 x6 | x6 | x6 | x6 | x4 | D,,2 x2 | x6 | x6 | x6 | x6 | x6 | x5 | x6 | x6 | x6 | x6 | x6 | %520
 A,,C,B,, A,,B,,C, | x4 | x4 | x6 | x4 | x6 | x6 | x6 | x6 | x6 | x6 | x5 | x2 | x3 | x13/2 | x4 | %536
 x4 | x3 | x3 | x5 | x4 | x8 | x8 | x8 | x8 | x8 | x8 | x8 | x8 | x8 | x8 | x8 | x8 | x8 | x8 | %555
 x8 | x8 | x8 | x8 | x8 | x8 | x8 | x8 | x8 | x8 | x8 | x8 | x8 | x8 | x8 | x8 | x8 | x8 | x8 | %574
 x8 | x8 | x8 | x8 | x8 | x8 | x8 |] %581
V:4
 x7 | x8 | x8 | x8 | x8 | x8 | x7 | x8 | x19/2 | x17/2 | x8 | x9 | x8 | x8 | x8 | x8 | x8 | x8 | %18
 x12 | x7 ^G | A=G FE x5 | x19/2 | FE DC x5 | x17/2 | D/d/=c/d/ x f2 x3 | x19/2 | x19/2 | x7 | x8 | %29
 x8 | x8 | x8 | x8 | x8 | x3 | x3 | x8 | x8 | x8 | x9 | x8 |[K:bass] x17/2 | x19/2 | x17/2 | x10 | %45
 x21/2 | x2 | x8 | x10 | x7/2 C D=C B,A, | x19/2 | x3 | x19/2 | x4 G=F ED | x19/2 | x3 | x17/2 | %57
 x8 | x8 | x8 | x7 | x17/2 | x8 | x8 | x8 | x17/2 | x8 | x8 | x8 | x8 | x8 | x8 | x8 | x8 | x8 | %75
 x8 | x8 | x8 | x8 | x8 | x8 | x8 | x8 | x8 | x8 | x2 | x/ | x8 | x8 | x8 | x8 | x8 | x8 | x8 | %94
 x8 | x8 | x8 | x8 | x8 | x8 | x18 | x8 | x8 | x8 | x15/2 | x8 | x8 | x7 | x7 | x19/2 | x19/2 | %111
 x8 | x8 | x9 | x8 | x8 | x8 | x8 | x8 | x8 | x7 | x8 |[K:bass] x8 | x8 | x17/2 | x7 | x19/2 | x8 | %128
 x7 z x | x17/2 | x8 | x8 | x bge x [cf][Ad][FA] x3/2 | x [Be][Gc][EA] x4 | x7 | x8 | x8 | x8 | %138
 x8 | x8 | x31/4 | x10 | x23/4 e/4C/4D/4E/4F/4G/4A/4B/4 | x8 | x31/4 | x8 | x5/4 | x5/4 | x5/4 | %149
 x7/4 | x55/2 | x57/2 | x24 | a8- | abag f/g/Mg/f/4g/4 ag/f/ | c x7 | x8 | x8 | x8 | x4 | x4 | x4 | %162
 x8 | x8 | x8 | x8 | x8 | x8 | x8 | x8 | x8 | x8 | x8 | x8 | x8 | x8 | x8 | x8 | x8 | x8 | x8 | %181
 x8 | x8 | x8 | x8 | x8 | x8 | x8 | x4 | x4 | x4 | x4 | x4 | x4 | %194
 x7/4 e/4d/4c/4B/4A/4G/4F/4E/4 F/4d/4c/4B/4A/4d/4c/4B/4 A/4G/4F/4E/4D/4[I:staff +1]B,/4A,/4 | %195
 x31/4 | x29/4 | x113/4 | x19 | x13 | x28 | x19 | x4 | x23/4 | x8 | x8 | x8 | x8 | x8 | x8 | %210
 x11[I:staff -1] z/ x/ | x21/2 | x23/2 | x23/2 | x23/2 | x10 | x8 | x8 | x8 | x8 | x7 | x8 | %222
[K:bass] x8 | x8 | x8 | x8 | x8 | x6 EG | x8 |][M:4/4] x8 | x20 | x8 | x15 | x8 | x8 | x8 | x8 | %237
 x8 | x8 | x8 | x8 | x8 | x5 | x8 | ^g4- g(A/c/) (^e/f/e/g/) | x8 | x8 | x8 | x8 | x8 | x8 | x8 | %252
 x8 | x8 | x8 | x8 | x8 | x8 | x8 | x8 | x8 | x8 | x8 | x8 | x8 | x8 | x8 | x8 | x8 | x8 | x8 | %271
 x8 | x8 | x8 | x8 | x8 | x8 | x8 |] x8 | x8 | x8 | x8 | x8 | x8 | x8 | x8 | x8 | x8 | x8 | x8 | %290
 x8 | x8 | x8 | x8 | x8 | x8 | x8 | x8 | x8 | x8 | x8 | x8 | x8 | x8 | x8 | x8 | x8 | x8 | x8 | %309
 x8 | x8 | x8 | x8 | x8 | x8 | x8 | x8 | x8 | x8 | x8 | x8 | x8 | x8 | x8 | x8 | x8 | x8 | x8 | %328
 x8 | x8 | x8 | x8 | x8 | x8 | x8 | x8 | x8 | x8 | x8 | x8 | x8 | x8 | x8 | x8 | x8 | x8 | x8 | %347
 x8 | x8 | x8 | x8 | x8 | x8 | x8 | x8 | x8 | x8 | x8 | x6 | x6 | x12 | x6 | x12 | x6 | x6 | x6 | %366
 x6 | x2 | x2 | x2 | x5 | x6 | x5 | x6 | x4 | x5 | x4 | x4 | x4 | x6 | x6 | x3 | x5 | x3 | x5 | %385
 x6 | x6 | x4 | x6 | x6 | x6 | x6 | x6 | x6 | x6 | x6 | x6 | x6 | x6 | x6 | x2 | x6 | x5 | x12 | %404
 x4 | x11 | x3 | x3 | x3 | x4 | x4 | x11/2 | x5 | x5 | x5 | x2 | x5 | x4 | x6 | x4 | x4 | x4 | x6 | %423
 x6 | x6 | x6 | x6 | x6 | x6 | x6 | x6 | x4 | x4 | x8 | x7 | x6 | x4 | x4 | x4 | x2 F/ B3/2 F/ x | %440
 GFE DEF | x6 | x6 | x6 | x6 | x6 | x6 | GFE DEC | x6 | x6 | x6 | x6 | x4 | x6 | x4 | x6 | x4 | %457
 x4 | x6 | x6 | x4 | x4 | x6 | x6 | x4 | x6 | x4 | x6 | x6 | x6 | x6 | x6 | x6 | x6 | x6 | x6 | %476
 x6 | x6 | x5 | x6 | x6 | x6 | x6 | x6 | x6 | x5 | x6 | x6 | x5 | x6 | x6 | x4 | x9 | x5 | x5 | %495
 x4 | x4 | x4 | x6 | x12 | x6 | x6 | x6 | x6 | x6 | x6 | x6 | x4 | x4 | x6 | x6 | x6 | x6 | x6 | %514
 x5 | x6 | x6 | x6 | x6 | x6 | x6 | x2 E x | (F4 | F)A^G FED | C4- | CA,B, CB,C | ^DFE DFE | %527
 ^DB,C DC(D | E/)=D/E/F/E/D/ [Bce]2 x | x6 | x3 A2- x | A2 x3 | x2 | x3 | x13/2 | x4 | x4 | x3 | %538
 x3 | x5 | x4 | x8 | x8 | x8 | x8 | x8 | x8 | x8 | x8 | x8 | x8 | x8 | x8 | x8 | x8 | x8 | x8 | %557
 x8 | x8 | x8 | x8 | x8 | x8 | x8 | x8 | x8 | x8 | x8 | x8 | x8 | x8 | x8 | x8 | x8 | x8 | x8 | %576
 x8 | x8 | x8 | x8 | x8 |] %581
V:5
 x7 | x8 | x8 | x8 | x8 | x8 | x7 | x8 | x19/2 | x17/2 | x8 | x9 | x8 | x8 | x8 | x8 | x8 | x8 | %18
 x12 | x8 | x9 | x19/2 | x9 | x17/2 | x4 [dg]2 z2 | x19/2 | x19/2 | x7 | x8 | x8 | x8 | x8 | x8 | %33
 x8 | x3 | x3 | x8 | x8 | x8 | x9 | x8 |[K:bass] x17/2 | x19/2 | x17/2 | x10 | x21/2 | x2 | x8 | %48
 x10 | x17/2 | x19/2 | x3 | x19/2 | x8 | x19/2 | x3 | x17/2 | x8 | x8 | x8 | x7 | x17/2 | x8 | x8 | %64
 x8 | x17/2 | x8 | x8 | x8 | x8 | x8 | x8 | x8 | x8 | x8 | x8 | x8 | x8 | x8 | x8 | x8 | x8 | x8 | %83
 x8 | x8 | x2 | x/ | x8 | x8 | x8 | x8 | x8 | x8 | x8 | x8 | x8 | x8 | x8 | x8 | x8 | x18 | x8 | %102
 x8 | x8 | x15/2 | x8 | x8 | x7 | x7 | x19/2 | x19/2 | x8 | x8 | x9 | x8 | x8 | x8 | x8 | x8 | x8 | %120
 x7 | x8 |[K:bass] x8 | x8 | x17/2 | x7 | x19/2 | x8 | x9 | x17/2 | x8 | x8 | x19/2 | x8 | x7 | %135
 x8 | x8 | x8 | x8 | x8 | x31/4 | x10 | x31/4 | x8 | x31/4 | x8 | x5/4 | x5/4 | x5/4 | x7/4 | %150
 x55/2 | x57/2 | x24 | E/A/4G/4F/A/ E/A/D/A/ C/A/D/A/ C/A/B,/A/ | x8 | x8 | x8 | x8 | x8 | x4 | %160
 x4 | x4 | x8 | x8 | x8 | x8 | x8 | x8 | x8 | x8 | x8 | x8 | x8 | x8 | x8 | x8 | x8 | x8 | x8 | %179
 x8 | x8 | x8 | x8 | x8 | x8 | x8 | x8 | x8 | x4 | x4 | x4 | x4 | x4 | x4 | x15/2 | x31/4 | x29/4 | %197
 x113/4 | x19 | x13 | x28 | x19 | x4 | x23/4 | x8 | x8 | x8 | x8 | x8 | x8 | x12 | x21/2 | x23/2 | %213
 x23/2 | x23/2 | x10 | x8 | x8 | x8 | x8 | x7 | x8 |[K:bass] x8 | x8 | x8 | x8 | x8 | x8 | x8 |] %229
[M:4/4] x8 | x20 | x8 | x15 | x8 | x8 | x8 | x8 | x8 | x8 | x8 | x8 | x8 | x5 | x8 | x8 | x8 | x8 | %247
 x8 | x8 | x8 | x8 | x8 | x8 | x8 | x8 | x8 | x8 | x8 | x8 | x8 | x8 | x8 | x8 | x8 | x8 | x8 | %266
 x8 | x8 | x8 | x8 | x8 | x8 | x8 | x8 | x8 | x8 | x8 | x8 |] x8 | x8 | x8 | x8 | x8 | x8 | x8 | %285
 x8 | x8 | x8 | x8 | x8 | x8 | x8 | x8 | x8 | x8 | x8 | x8 | x8 | x8 | x8 | x8 | x8 | x8 | x8 | %304
 x8 | x8 | x8 | x8 | x8 | x8 | x8 | x8 | x8 | x8 | x8 | x8 | x8 | x8 | x8 | x8 | x8 | x8 | x8 | %323
 x8 | x8 | x8 | x8 | x8 | x8 | x8 | x8 | x8 | x8 | x8 | x8 | x8 | x8 | x8 | x8 | x8 | x8 | x8 | %342
 x8 | x8 | x8 | x8 | x8 | x8 | x8 | x8 | x8 | x8 | x8 | x8 | x8 | x8 | x8 | x8 | x6 | x6 | x12 | %361
 x6 | x12 | x6 | x6 | x6 | x6 | x2 | x2 | x2 | x5 | x6 | x5 | x6 | x4 | x5 | x4 | x4 | x4 | x6 | %380
 x6 | x3 | x5 | x3 | x5 | x6 | x6 | x4 | x6 | x6 | x6 | x6 | x6 | x6 | x6 | x6 | x6 | x6 | x6 | %399
 x6 | x2 | x6 | x5 | x12 | x4 | x11 | x3 | x3 | x3 | x4 | x4 | x11/2 | x5 | x5 | x5 | x2 | x5 | %417
 x4 | x6 | x4 | x4 | x4 | x6 | x6 | x6 | x6 | x6 | x6 | x6 | x6 | x6 | x4 | x4 | x8 | x7 | x6 | %436
 x4 | x4 | x4 | x5/2 def | x6 | x6 | x6 | x6 | x6 | x6 | x6 | x6 | x6 | x6 | x6 | x6 | x4 | x6 | %454
 x4 | x6 | x4 | x4 | x6 | x6 | x4 | x4 | x6 | x6 | x4 | x6 | x4 | x6 | x6 | x6 | x6 | x6 | x6 | %473
 x6 | x6 | x6 | x6 | x6 | x5 | x6 | x6 | x6 | x6 | x6 | x6 | x5 | x6 | x6 | x5 | x6 | x6 | x4 | %492
 x9 | x5 | x5 | x4 | x4 | x4 | x6 | x12 | x6 | x6 | x6 | x6 | x6 | x6 | x6 | x4 | x4 | x6 | x6 | %511
 x6 | x6 | x6 | x5 | x6 | x6 | x6 | x6 | x6 | x6 | x4 | x4 | x6 | x4 | x6 | x6 | x6 | x6 | x6 | %530
 x6 | x5 | x2 | x3 | x13/2 | x4 | x4 | x3 | x3 | x5 | x4 | x8 | x8 | x8 | x8 | x8 | x8 | x8 | x8 | %549
 x8 | x8 | x8 | x8 | x8 | x8 | x8 | x8 | x8 | x8 | x8 | x8 | x8 | x8 | x8 | x8 | x8 | x8 | x8 | %568
 x8 | x8 | x8 | x8 | x8 | x8 | x8 | x8 | x8 | x8 | x8 | x8 | x8 |] %581
V:6
 x7 | x8 | x8 | x8 | x8 | x8 | x7 | x8 | x19/2 | x17/2 | x8 | x9 | x8 | x8 | x8 | x8 | x8 | x8 | %18
 x12 | x8 | x9 | x19/2 | x9 | x17/2 | x8 | x19/2 | x19/2 | x7 | x8 | x8 | x8 | x8 | x8 | x8 | x3 | %35
 x3 | x8 | x8 | x8 | x9 | x8 | x17/2 | x19/2 | x17/2 | x10 | x21/2 | x2 | x8 | x10 | x17/2 | %50
 x19/2 | x3 | x19/2 | x8 | x19/2 | x3 | x17/2 | x8 | x8 | x8 | x7 | x17/2 | x8 | x8 | x8 | x17/2 | %66
 x8 | x8 | x8 | x8 | x8 | x8 | x8 | x8 | x8 | x8 | x8 | x8 | x8 | x8 | x8 | x8 | x8 | x8 | x8 | %85
 x2 | x/ | x8 | x8 | x8 | x8 | x8 | x8 | x8 | x8 | x8 | x8 | x8 | x8 | x8 | x18 | x8 | x8 | x8 | %104
 x15/2 | x8 | x8 | x7 | x7 | x19/2 | x19/2 | x8 | x8 | x9 | x8 | x8 | x8 | x8 | x5[K:treble] x3 | %119
 x8 | x7 | x8 | x8 | x8 | x17/2 | x7 | x19/2 | x8 | x9 | x17/2 | x8 | x8 | x19/2 | x8 | x7 | x8 | %136
 x8 | x8 | x8 | x8 | x31/4 | x10 | x31/4 | x8 | x31/4 | x8 | x5/4 | x5/4 | x5/4 | x7/4 | x55/2 | %151
 x57/2 | x24 | x8 | x8 | x8 | x8 | x8 | x8 | x4 | x4 | x4 | x8 | x8 | x8 | x8 | x8 | x8 | x8 | x8 | %170
 x8 | x8 | x8 | x8 | x8 | x8 | x8 | x8 | x8 | x8 | x8 | x8 | x8 | x8 | x8 | x8 | x8 | x8 | x4 | %189
 x4 | x4 | x4 | x4 | x4 | x15/2 | x31/4 | x29/4 | x113/4 | x19 | x13 | x55/4[K:treble+8] x57/4 | %201
 x19 | x4 | x23/4 | x8 | x8 | x8 | x8 | x8 | x8 | x12 | x21/2 | x23/2 | x23/2 | x23/2 | %215
 x4 F,,/.E,,/F,,/ x9/2 | x8 | x8 | x8 | x8 | x7 | x8 | x8 | x8 | x8 | x8 | x8 | x8 | x8 |] %229
[M:4/4] x8 | x20 | x8 | x15 | x8 | x8 | x8 | x8 | x8 | x8 | x8 | x8 | x8 | x5 | x8 | x8 | x8 | x8 | %247
 x8 | x8 | x8 | x8 | x8 | x8 | x8 | x8 | x8 | x8 | x8 | x8 | x8 | x8 | x8 | x8 | x8 | x8 | x8 | %266
 x8 | x8 | x8 | x8 | x8 | x8 | x8 | x8 | x8 | x8 | x8 | x8 |] x8 | x8 | x8 | x8 | x8 | x8 | x8 | %285
 x8 | x8 | x8 | x8 | x8 | x8 | x8 | x8 | x8 | x8 | x8 | x8 | x8 | x8 | x8 | x8 | x8 | x8 | x8 | %304
 x8 | x8 | x8 | x8 | x8 | x8 | x8 | x8 | x8 | x8 | x8 | x8 | x8 | x8 | x8 | x8 | x8 | x8 | x8 | %323
 x8 | x8 | x8 | x8 | x8 | x8 | x8 | x8 | x8 | x8 | x8 | x8 | x8 | x8 | x8 | x8 | x8 | x8 | x8 | %342
 x8 | x8 | x8 | x8 | x8 | x8 | x8 | x8 | x8 | x8 | x8 | x8 | x8 | x8 | x8 | x8 | x6 | x6 | x12 | %361
 x6 | x12 | x6 | x6 | x6 | x6 | x2 | x2 | x2 | x5 | x6 | x5 | x6 | x4 | x5 | x4 | x4 | x4 | x6 | %380
 x6 | x3 | x5 | x3 | x5 | x6 | x6 | x4 | x6 | x6 | x6 | x6 | x6 | x6 | x6 | x6 | x6 | x6 | x6 | %399
 x6 | x2 | x6 | x5 | x12 | x4 | x11 | x3 | x3 | x3 | x4 | x4 | x11/2 | x5 | x5 | x5 | x2 | x5 | %417
 x4 | x6 | x4 | x4 | x4 | x6 | x6 | x6 | x6 | x6 | x6 | x6 | x6 | x6 | x4 | x4 | x8 | x7 | x6 | %436
 x4 | x4 | x4 | x11/2 | x6 | x6 | x6 | x6 | x6 | x6 | x6 | x6 | x6 | x6 | x6 | x6 | x4 | x6 | x4 | %455
 x6 | x4 | x4 | x6 | x6 | x4 | x4 | x6 | x6 | x4 | x6 | x4 | x6 | x6 | x6 | x6 | x6 | x6 | x6 | %474
 x6 | x6 | x6 | x6 | x5 | x6 | x6 | x6 | x6 | x6 | x6 | x5 | x6 | x6 | x5 | x6 | x6 | x4 | x9 | %493
 x5 | x5 | x4 | x4 | x4 | x6 | x12 | x6 | x6 | x6 | x6 | x6 | x6 | x6 | x4 | x4 | x6 | x6 | x6 | %512
 x6 | x6 | x5 | x6 | x6 | x6 | x6 | x6 | x6 | x4 | x4 | x6 | x4 | x6 | x6 | x6 | x6 | x6 | x6 | %531
 x5 | x2 | x3 | x13/2 | x4 | x4 | x3 | x3 | x5 | x4 | x8 | x8 | x8 | x8 | x8 | x8 | x8 | x8 | x8 | %550
 x8 | x8 | x8 | x8 | x8 | x8 | x8 | x8 | x8 | x8 | x8 | x8 | x8 | x8 | x8 | x8 | x8 | x8 | x8 | %569
 x8 | x8 | x8 | x8 | x8 | x8 | x8 | x8 | x8 | x8 | x8 | x8 |] %581

